Yaru++/apps/scalable/preferences-desktop-wallpaper.svg

<svg enable-background="new" height="256" viewBox="0 0 256 256" width="256" xmlns="http://www.w3.org/2000/svg" xmlns:xlink="http://www.w3.org/1999/xlink"><radialGradient id="a" cx="200" cy="131.998" gradientTransform="matrix(1 0 0 1.0000752 -28.17339 -39.289242)" gradientUnits="userSpaceOnUse" r="31.997"><stop offset="0"/><stop offset="1" stop-opacity="0"/></radialGradient><filter id="b" color-interpolation-filters="sRGB" height="1.288" width="1.288" x="-.14" y="-.14"><feGaussianBlur stdDeviation="3.84"/></filter><linearGradient id="c" gradientTransform="matrix(.453125 0 0 .45311204 11.82391 6.758579)" gradientUnits="userSpaceOnUse" x1="529.655" x2="-35.31" y1="401.584" y2="119.093"><stop offset="0" stop-color="#fb7c38"/><stop offset="1" stop-color="#9b33ae"/></linearGradient><filter id="d" color-interpolation-filters="sRGB" height="1.052" width="1.045" x="-.02" y="-.03"><feGaussianBlur stdDeviation="4.16"/></filter><filter id="e" color-interpolation-filters="sRGB" height="1.022" width="1.026" x="-.01" y="-.01"><feGaussianBlur stdDeviation="2.12"/></filter><path d="m189.84323 74c-70.59344 0-78.18921 7.250835-77.84323 77.98706v146.01294 146.01294c-.34598 70.73623 7.24979 77.98706 77.84323 77.98706h228.31354c70.59344 0 75.90613-7.27652 77.84323-77.98706v-146.01294-146.01294c0-70.737067-7.24979-77.98706-77.84323-77.98706z" filter="url(#e)" opacity=".1" transform="matrix(0 -.5 .5 0 -25.176088 277.71558)"/><path d="m189.84323 74c-70.59344 0-78.18921 7.250835-77.84323 77.98706v146.01294 146.01294c-.34598 70.73623 7.24979 77.98706 77.84323 77.98706h228.31354c70.59344 0 77.84323-7.24999 77.84323-77.98706v-146.01294-146.01294c0-70.737067-7.24979-77.98706-77.84323-77.98706z" filter="url(#d)" opacity=".2" transform="matrix(0 .5 .5 0 -25.176088 -26.279031)"/><path d="m50.816844 28.722184c-35.36812-.172978-38.992187 4.164701-38.992187 39.458985v.53711 1 112.082031c0 35.29672 3.623657 38.91992 38.992187 38.91992h73.007816 73.00586c35.36853 0 38.99414-3.6232 38.99414-38.91992v-112.082031-1-.53711c0-35.294284-3.62603-39.631963-38.99414-39.458985h-73.00586z" fill="url(#c)"/><path d="m11.824657 179.80031v2c0 35.29672 3.623654 38.91992 38.992187 38.91992h73.007816 73.00586c35.36853 0 38.99414-3.6232 38.99414-38.91992v-2c0 35.29672-3.62561 38.91992-38.99414 38.91992h-73.00586-73.007816c-35.368533 0-38.992187-3.6232-38.992187-38.91992z" opacity=".2"/><path d="m46.641063 28.722184c-31.57868-.172978-34.814453 4.164705-34.814453 39.458985v.53711 1 112.082031c0 35.29672 3.235408 38.91992 34.814453 38.91992h15.185547v-191.998046z" opacity=".3"/><path d="m171.83052 28.722184 63.99414 63.994145v-22.99805-1-.53711c0-35.294286-3.62603-39.631963-38.99414-39.458985z" fill="#5d5d5d"/><path d="m235.82466 92.711529-63.99414-63.994151v22.998051 1 .53711c0 35.29429 3.62603 39.63197 38.99414 39.45899z" fill="url(#a)" filter="url(#b)"/><path d="m235.82466 92.711529-63.99414-63.994151v22.998051 1 .53711c0 35.29429 3.62603 39.63197 38.99414 39.45899z" fill="#faf8f6"/><path d="m50.816844 28.720231c-35.36812-.17299-38.992187 3.625146-38.992187 38.921878v2c0-35.296732 3.624067-39.094867 38.992187-38.921877h73.007816 73.00586c35.36811-.17299 38.99414 3.625145 38.99414 38.921877v-2c0-35.296732-3.62603-39.094868-38.99414-38.921878h-73.00586z" fill="#fff" opacity=".2"/></svg>

<svg xmlns="http://www.w3.org/2000/svg" xmlns:xlink="http://www.w3.org/1999/xlink" style="enable-background:new" width="256" height="256" version="1.0" viewBox="0 0 256 256">
 <title id="title4162">
  Adwaita Icon Template
 </title>
 <defs>
  <linearGradient id="linearGradient1099" x1="32" x2="96" y1="236" y2="236" gradientTransform="translate(604.81684,170.58641)" gradientUnits="userSpaceOnUse" xlink:href="#linearGradient1036"/>
  <linearGradient id="linearGradient1036">
   <stop id="stop1032" offset="0" style="stop-color:#d5d3cf"/>
   <stop id="stop1034" offset="1" style="stop-color:#f6f5f4"/>
  </linearGradient>
  <radialGradient id="radialGradient1103" cx="-244" cy="-76" r="32" fx="-244" fy="-76" gradientTransform="matrix(0.88333331,0,0,0.88333331,-460.35018,463.11973)" gradientUnits="userSpaceOnUse" xlink:href="#linearGradient1069"/>
  <linearGradient id="linearGradient1069">
   <stop id="stop1065" offset="0" style="stop-color:#d5d3cf"/>
   <stop id="stop1067-1" offset="1" style="stop-color:#949390"/>
  </linearGradient>
  <linearGradient id="linearGradient1027" x1="64" x2="64" y1="262.5" y2="232" gradientTransform="translate(-470.5864,432.81685)" gradientUnits="userSpaceOnUse" xlink:href="#linearGradient1025"/>
  <linearGradient id="linearGradient1025">
   <stop id="stop1021" offset="0" style="stop-color:#9a9996"/>
   <stop id="stop1023" offset="1" style="stop-color:#77767b"/>
  </linearGradient>
  <linearGradient id="linearGradient1076">
   <stop style="stop-color:#d5d3cf" id="stop1064" offset="0"/>
   <stop id="stop1066" offset=".036" style="stop-color:#e4e1de"/>
   <stop style="stop-color:#d5d3cf" id="stop1068" offset=".071"/>
   <stop id="stop1070" offset=".929" style="stop-color:#d5d3cf"/>
   <stop style="stop-color:#e4e1de" id="stop1072" offset=".964"/>
   <stop style="stop-color:#d5d3cf" id="stop1074" offset="1"/>
  </linearGradient>
  <linearGradient id="linearGradient1020">
   <stop style="stop-color:#ffffff" id="stop1016" offset="0"/>
   <stop style="stop-color:#ffffff;stop-opacity:0.09411765" id="stop1018" offset="1"/>
  </linearGradient>
  <radialGradient id="radialGradient1030-8" cx="64" cy="194.19" r="44" fx="64" fy="194.19" gradientTransform="matrix(-4.7272726,1.2901346e-6,-3.0301491e-7,-1.4318182,490.54548,36.71204)" gradientUnits="userSpaceOnUse" xlink:href="#linearGradient1020"/>
  <linearGradient id="linearGradient1444-2-3-3" x1="120" x2="568" y1="619.964" y2="619.964" gradientTransform="matrix(0.25,0,0,0.25,105.99999,91.009027)" gradientUnits="userSpaceOnUse" xlink:href="#linearGradient1076"/>
  <filter id="filter4569" width="1.023" height="1.025" x="-.01" y="-.01" style="color-interpolation-filters:sRGB">
   <feGaussianBlur id="feGaussianBlur22" stdDeviation="1.16"/>
  </filter>
  <filter id="filter1132" width="1.046" height="1.05" x="-.02" y="-.03" style="color-interpolation-filters:sRGB">
   <feGaussianBlur id="feGaussianBlur19" stdDeviation="2.32"/>
  </filter>
  <linearGradient id="linearGradient2059" x1="168" x2="168" y1="284" y2="28" gradientTransform="matrix(0.26458333,0,0,0.26458333,-6.993469,221.97263)" gradientUnits="userSpaceOnUse">
   <stop style="stop-color:#f7f7f7" id="stop14" offset="0"/>
   <stop style="stop-color:#e6e6e6" id="stop16" offset="1"/>
  </linearGradient>
  <linearGradient id="linearGradient1108" x1="296" x2="296" y1="-212" y2="236" gradientUnits="userSpaceOnUse">
   <stop style="stop-color:#ffffff" id="stop2" offset="0"/>
   <stop style="stop-color:#ffffff;stop-opacity:.09803922" id="stop4" offset=".125"/>
   <stop style="stop-color:#000000;stop-opacity:0" id="stop6" offset=".925"/>
   <stop style="stop-color:#000000;stop-opacity:0" id="stop8" offset="1"/>
  </linearGradient>
  <clipPath id="clipPath1082-3-360">
   <path style="fill:#8c59d9" d="M 361.9375,-212 C 507.2348,-212 528,-191.28677 528,-46.125 V 70.125 C 528,215.28618 507.2348,236 361.9375,236 H 214.0625 C 68.7652,236 48,215.28618 48,70.125 V -46.125 C 48,-191.28677 68.7652,-212 214.0625,-212 Z"/>
  </clipPath>
  <filter style="color-interpolation-filters:sRGB" id="filter1013" width="1.046" height="1.05" x="-.02" y="-.03">
   <feGaussianBlur id="feGaussianBlur1068" stdDeviation="2.32"/>
  </filter>
  <linearGradient id="linearGradient938" x1="32" x2="272" y1="156" y2="156" gradientTransform="matrix(-0.08986282,0.24689608,0.24689608,0.08986282,8.4712326,208.56355)" gradientUnits="userSpaceOnUse">
   <stop style="stop-color:#9b33ae" id="stop1063" offset="0"/>
   <stop style="stop-color:#e97cc8" id="stop1065-3" offset="1"/>
  </linearGradient>
  <clipPath id="clipPath989-2">
   <path style="fill:url(#linearGradient993)" d="M 115.03124,43.99999 C 42.382604,44 32.000014,54.35661 32.000004,126.9375 v 58.12499 c 0,72.5806 10.38261,82.9375 83.031236,82.9375 h 73.93752 C 261.6174,267.99999 272,257.64307 272,185.06249 V 126.9375 C 272,54.35661 261.6174,44 188.96875,44 Z"/>
  </clipPath>
  <filter id="filter931-3" width="1.023" height="1.025" x="-.01" y="-.01" style="color-interpolation-filters:sRGB">
   <feGaussianBlur id="feGaussianBlur1074" stdDeviation=".423"/>
  </filter>
  <linearGradient id="linearGradient971" x1="184" x2="232" y1="76" y2="124" gradientTransform="translate(0,4)" gradientUnits="userSpaceOnUse">
   <stop style="stop-color:#000000;stop-opacity:0" id="stop1047" offset="0"/>
   <stop style="stop-color:#000000" id="stop1049" offset=".49"/>
   <stop style="stop-color:#000000;stop-opacity:0" id="stop1051" offset="1"/>
  </linearGradient>
  <linearGradient id="linearGradient1108-6" x1="296" x2="296" y1="-212" y2="236" gradientTransform="matrix(0.13137065,0,0,0.13137065,-4.5068854,258.53392)" gradientUnits="userSpaceOnUse">
   <stop style="stop-color:#ffffff" id="stop1054" offset="0"/>
   <stop style="stop-color:#ffffff;stop-opacity:.09803922" id="stop1056" offset=".125"/>
   <stop style="stop-color:#000000;stop-opacity:.09803922" id="stop1058" offset=".925"/>
   <stop style="stop-color:#000000;stop-opacity:.49803922" id="stop1060" offset="1"/>
  </linearGradient>
  <linearGradient id="linearGradient1130" x1="344" x2="340" y1="76" y2="72" gradientTransform="matrix(0.25,0,0,0.25,180,83)" gradientUnits="userSpaceOnUse" xlink:href="#linearGradient1351-3"/>
  <linearGradient id="linearGradient1351-3">
   <stop id="stop1347" offset="0" style="stop-color:#d5d3cf"/>
   <stop id="stop1349-6" offset="1" style="stop-color:#ffffff"/>
  </linearGradient>
  <clipPath id="clipPath1609-7" clipPathUnits="userSpaceOnUse">
   <path style="fill:#e74747" d="m 252,116 28,-28 v -8 h -36 v 36 z"/>
  </clipPath>
  <linearGradient id="linearGradient939" x1="90.054" x2="88.963" y1="249.69" y2="248.632" gradientTransform="matrix(0.98396578,-0.00140976,0.00148728,0.97392671,8.8138397,28.166225)" gradientUnits="userSpaceOnUse" xlink:href="#linearGradient1351-3"/>
  <radialGradient id="radialGradient15026" cx="200" cy="131.998" r="31.997" fx="200" fy="131.998" gradientTransform="matrix(1,0,0,1.0000752,-28.17339,-39.289242)" gradientUnits="userSpaceOnUse" xlink:href="#linearGradient15024"/>
  <linearGradient id="linearGradient15024">
   <stop style="stop-color:#000000" id="stop15020" offset="0"/>
   <stop style="stop-color:#000000;stop-opacity:0" id="stop15022" offset="1"/>
  </linearGradient>
  <filter style="color-interpolation-filters:sRGB" id="filter15084" width="1.288" height="1.288" x="-.14" y="-.14">
   <feGaussianBlur id="feGaussianBlur15086" stdDeviation="3.84"/>
  </filter>
  <linearGradient id="linearGradient4226" x1="529.655" x2="-35.31" y1="401.584" y2="119.093" gradientTransform="matrix(0.453125,0,0,0.45311204,11.82391,6.758579)" gradientUnits="userSpaceOnUse" xlink:href="#linearGradient1674"/>
  <linearGradient id="linearGradient1674">
   <stop id="stop1670" offset="0" style="stop-color:#fb7c38"/>
   <stop id="stop1672" offset="1" style="stop-color:#9b33ae"/>
  </linearGradient>
  <filter style="color-interpolation-filters:sRGB" id="filter965" width="1.045" height="1.052" x="-.02" y="-.03">
   <feGaussianBlur id="feGaussianBlur967" stdDeviation="4.16"/>
  </filter>
  <filter style="color-interpolation-filters:sRGB" id="filter4346" width="1.026" height="1.022" x="-.01" y="-.01">
   <feGaussianBlur id="feGaussianBlur4348" stdDeviation="2.12"/>
  </filter>
 </defs>
 <path style="opacity:0.1;filter:url(#filter4346)" d="M 189.84323,74 C 119.24979,74 111.65402,81.250835 112,151.98706 V 298 444.01294 C 111.65402,514.74917 119.24979,522 189.84323,522 H 418.15677 C 488.75021,522 494.0629,514.72348 496,444.01294 V 298 151.98706 C 496,81.249993 488.75021,74 418.15677,74 Z" transform="matrix(0,-0.5,0.5,0,-25.176088,277.71558)"/>
 <path d="M 189.84323,74 C 119.24979,74 111.65402,81.250835 112,151.98706 V 298 444.01294 C 111.65402,514.74917 119.24979,522 189.84323,522 H 418.15677 C 488.75021,522 496,514.75001 496,444.01294 V 298 151.98706 C 496,81.249993 488.75021,74 418.15677,74 Z" transform="matrix(0,0.5,0.5,0,-25.176088,-26.279031)" style="opacity:0.2;filter:url(#filter965)"/>
 <path style="fill:url(#linearGradient4226)" d="M 50.816844,28.722184 C 15.448724,28.549206 11.824657,32.886885 11.824657,68.181169 v 0.53711 1 112.082031 c 0,35.29672 3.623657,38.91992 38.992187,38.91992 h 73.007816 73.00586 c 35.36853,0 38.99414,-3.6232 38.99414,-38.91992 v -112.082031 -1 -0.53711 c 0,-35.294284 -3.62603,-39.631963 -38.99414,-39.458985 h -73.00586 z"/>
 <path style="opacity:0.2" d="m 11.824657,179.80031 v 2 c 0,35.29672 3.623654,38.91992 38.992187,38.91992 h 73.007816 73.00586 c 35.36853,0 38.99414,-3.6232 38.99414,-38.91992 v -2 c 0,35.29672 -3.62561,38.91992 -38.99414,38.91992 H 123.82466 50.816844 c -35.368533,0 -38.992187,-3.6232 -38.992187,-38.91992 z"/>
 <path style="opacity:0.3" d="M 46.641063,28.722184 C 15.062383,28.549206 11.82661,32.886889 11.82661,68.181169 v 0.53711 1 112.082031 c 0,35.29672 3.235408,38.91992 34.814453,38.91992 H 61.82661 V 28.722184 Z"/>
 <path style="fill:#5d5d5d" d="m 171.83052,28.722184 63.99414,63.994145 v -22.99805 -1 -0.53711 c 0,-35.294286 -3.62603,-39.631963 -38.99414,-39.458985 z"/>
 <path style="fill:url(#radialGradient15026);filter:url(#filter15084)" d="M 235.82466,92.711529 171.83052,28.717378 v 22.998051 1 0.53711 c 0,35.29429 3.62603,39.63197 38.99414,39.45899 z"/>
 <path style="fill:#faf8f6" d="M 235.82466,92.711529 171.83052,28.717378 v 22.998051 1 0.53711 c 0,35.29429 3.62603,39.63197 38.99414,39.45899 z"/>
 <path style="opacity:0.2;fill:#ffffff" d="m 50.816844,28.720231 c -35.36812,-0.17299 -38.992187,3.625146 -38.992187,38.921878 v 2 c 0,-35.296732 3.624067,-39.094867 38.992187,-38.921877 h 73.007816 73.00586 c 35.36811,-0.17299 38.99414,3.625145 38.99414,38.921877 v -2 c 0,-35.296732 -3.62603,-39.094868 -38.99414,-38.921878 h -73.00586 z"/>
</svg>
